tools/download-figma-icons/icons/outlined-large/security-camera.svg

<svg width="64" height="64" viewBox="0 0 64 64" fill="none" xmlns="http://www.w3.org/2000/svg">
<path fill-rule="evenodd" clip-rule="evenodd" d="M43.4713 32.7196L48.4753 44.0005H60.9992V41.0005H51.4003C51.2673 41.0005 51.1423 40.9785 51.0203 40.9455C50.9927 40.9384 50.9668 40.9297 50.9403 40.9209L50.9303 40.9175C50.8263 40.8835 50.7263 40.8385 50.6323 40.7825C50.624 40.7768 50.6148 40.7725 50.6056 40.768C50.5971 40.764 50.5884 40.7598 50.5803 40.7545C50.4763 40.6865 50.3823 40.6035 50.2983 40.5115C50.2763 40.4865 50.2573 40.4615 50.2373 40.4365C50.1623 40.3435 50.0963 40.2435 50.0453 40.1355C50.043 40.1311 50.0404 40.1272 50.0378 40.1235C50.0346 40.1187 50.0315 40.1141 50.0293 40.1085L50.0183 40.0845C50.0183 40.0845 50.0183 40.0835 50.0173 40.0835L46.2353 31.5646L43.4713 32.7196ZM29.0794 34.8406C29.5694 35.0466 30.1084 35.0456 30.5994 34.8456L46.3653 28.2606C46.3708 28.2579 46.3761 28.2545 46.3815 28.251C46.3878 28.247 46.3943 28.2429 46.4013 28.2396C46.4122 28.2347 46.4233 28.2316 46.4345 28.2285C46.4438 28.2259 46.4532 28.2233 46.4623 28.2196L57.7772 23.4937C58.2762 23.2887 58.6592 22.9077 58.8632 22.4187C59.0672 21.9307 59.0692 21.3907 58.8672 20.8997L57.6862 18.0257L36.6004 26.7296C36.2314 26.8816 35.8184 26.8816 35.4514 26.7286C35.0834 26.5746 34.7914 26.2816 34.6404 25.9136C34.0854 24.5616 33.0374 23.5067 31.6884 22.9437C30.3384 22.3787 28.8514 22.3757 27.5014 22.9327L24.1344 24.2746L27.5784 32.7086C27.5835 32.7174 27.5887 32.7262 27.5938 32.7349C27.6248 32.7878 27.6554 32.8401 27.6794 32.8976C27.7094 32.9716 27.7284 33.0466 27.7464 33.1216L28.0094 33.7656C28.2094 34.2536 28.5904 34.6366 29.0794 34.8406ZM21.3475 25.3866L19.1935 26.2446L22.2025 33.5406L24.3194 32.6646L21.3475 25.3866ZM10.1735 20.0527L14.8625 24.7416L16.6565 24.0266L16.6575 24.0256H16.6585L21.6035 22.0547C21.604 22.0542 21.6045 22.0539 21.605 22.0537C21.6055 22.0534 21.606 22.0532 21.6065 22.0527C21.6069 22.0527 21.6074 22.0527 21.608 22.0526C21.6086 22.0524 21.6094 22.0522 21.6105 22.0517L26.3754 20.1507C28.4544 19.2977 30.7574 19.3027 32.8444 20.1757C34.4624 20.8517 35.8014 21.9837 36.7224 23.4347L60.5582 13.5957L57.2592 5.29977C56.4842 3.41178 54.3042 2.49979 52.4003 3.28279L10.1735 20.0527ZM60.9992 32.5006C60.9992 31.6726 61.6712 31.0006 62.4992 31.0006C63.3282 31.0006 63.9992 31.6726 63.9992 32.5006V52.4995C63.9992 53.3275 63.3282 53.9994 62.4992 53.9994C61.6712 53.9994 60.9992 53.3275 60.9992 52.4995V46.9995H47.4993C47.3673 46.9995 47.2423 46.9775 47.1203 46.9445C47.0926 46.9384 47.0679 46.9301 47.0423 46.9215C47.0383 46.9202 47.0343 46.9188 47.0303 46.9175C46.9253 46.8825 46.8263 46.8385 46.7323 46.7825C46.7238 46.777 46.715 46.7727 46.7063 46.7685C46.6975 46.7642 46.6888 46.76 46.6803 46.7545C46.5763 46.6865 46.4823 46.6035 46.3983 46.5105C46.3847 46.4963 46.3729 46.4818 46.3611 46.4671C46.353 46.457 46.3449 46.4467 46.3363 46.4365C46.2613 46.3435 46.1963 46.2435 46.1453 46.1345C46.1433 46.131 46.1409 46.1278 46.1385 46.1245C46.1346 46.1194 46.1307 46.1142 46.1283 46.1075L46.1183 46.0845C46.1183 46.0835 46.1183 46.0835 46.1173 46.0835L40.7023 33.8756L31.7474 37.6156C31.1314 37.8696 30.4864 37.9966 29.8424 37.9966C29.1914 37.9966 28.5414 37.8666 27.9234 37.6086C26.8774 37.1726 26.0484 36.3966 25.5064 35.4196L21.9605 36.8866C21.7775 36.9626 21.5825 37.0006 21.3875 37.0006C21.1925 37.0006 20.9965 36.9626 20.8125 36.8856C20.4445 36.7326 20.1525 36.4396 20.0005 36.0716L16.4075 27.3546L15.0555 27.8946C14.8745 27.9656 14.6875 28.0006 14.4995 28.0006C14.1095 28.0006 13.7265 27.8486 13.4395 27.5616L6.43956 20.5617C6.08156 20.2047 5.92856 19.6917 6.03156 19.1967C6.13256 18.7027 6.47756 18.2927 6.94655 18.1057L51.2763 0.500804C54.6962 -0.902186 58.6302 0.743803 60.0402 4.17478L63.8932 13.8617C64.1972 14.6237 63.8302 15.4887 63.0722 15.8027L60.4592 16.8817L61.6422 19.7597C62.1482 20.9917 62.1442 22.3467 61.6312 23.5747C61.1182 24.8036 60.1572 25.7596 58.9242 26.2656L49.0043 30.4076L52.3742 38.0006H60.9992V32.5006ZM21.4999 57.9994C11.2989 57.9994 2.99998 49.7005 2.99998 39.5005C2.99998 38.6726 2.32798 38.0006 1.49999 38.0006C0.671996 38.0006 0 38.6726 0 39.5005C0 51.3545 9.64494 60.9994 21.4999 60.9994C22.3279 60.9994 22.9998 60.3274 22.9998 59.4994C22.9998 58.6714 22.3279 57.9994 21.4999 57.9994ZM8.99994 39.5005C8.99994 46.3925 14.6069 51.9995 21.4999 51.9995C22.3279 51.9995 22.9998 52.6715 22.9998 53.4995C22.9998 54.3274 22.3279 54.9994 21.4999 54.9994C12.9529 54.9994 5.99996 48.0465 5.99996 39.5005C5.99996 38.6726 6.67196 38.0006 7.49995 38.0006C8.32794 38.0006 8.99994 38.6726 8.99994 39.5005ZM14.9999 39.5005C14.9999 43.0845 17.9159 45.9995 21.4999 45.9995C22.3279 45.9995 22.9998 46.6715 22.9998 47.4995C22.9998 48.3275 22.3279 48.9995 21.4999 48.9995C16.2619 48.9995 11.9999 44.7385 11.9999 39.5005C11.9999 38.6726 12.6719 38.0006 13.4999 38.0006C14.3279 38.0006 14.9999 38.6726 14.9999 39.5005Z" fill="black"/>
</svg>

<svg xmlns="http://www.w3.org/2000/svg" width="64" height="64" fill="none" viewBox="0 0 64 64"><path fill="currentColor" fill-rule="evenodd" d="M43.471 32.72 48.475 44H61v-3h-9.6c-.133 0-.258-.022-.38-.054l-.08-.025-.01-.004a1.5 1.5 0 0 1-.298-.135l-.026-.014-.026-.014a1.5 1.5 0 0 1-.282-.242l-.06-.075a1.5 1.5 0 0 1-.2-.313l-.009-.016-.01-.023-.002-.002-3.782-8.518zM29.08 34.84c.49.207 1.03.206 1.52.006l15.766-6.585.017-.01.02-.011.032-.011q.016-.004.028-.01l11.315-4.725a1.98 1.98 0 0 0 1.086-1.075 1.97 1.97 0 0 0 .004-1.52l-1.18-2.873L36.6 26.73a1.5 1.5 0 0 1-1.96-.816 5.43 5.43 0 0 0-2.952-2.97 5.42 5.42 0 0 0-4.187-.011l-3.367 1.342 3.444 8.434.016.026q.047.078.085.163.043.111.067.224l.263.644c.2.488.581.87 1.07 1.075m-7.732-9.453-2.154.858 3.01 7.296 2.116-.876zm-11.173-5.334 4.689 4.689 1.794-.715v-.001h.002l4.945-1.971.001-.001.002-.001h.001l.002-.001 4.765-1.901a8.4 8.4 0 0 1 6.47.025 8.4 8.4 0 0 1 3.877 3.259l23.836-9.84L57.26 5.3c-.775-1.888-2.955-2.8-4.859-2.017zM60.999 32.5a1.5 1.5 0 0 1 3 0v20a1.5 1.5 0 1 1-3 0V47H47.5a1.4 1.4 0 0 1-.379-.056q-.04-.01-.078-.023-.006 0-.012-.004a1.5 1.5 0 0 1-.324-.148l-.026-.014a1.5 1.5 0 0 1-.319-.288l-.025-.03a1.5 1.5 0 0 1-.19-.302l-.008-.01-.01-.017-.01-.023v-.002l-5.416-12.207-8.955 3.74a5 5 0 0 1-1.905.38 4.93 4.93 0 0 1-4.336-2.577l-3.545 1.468a1.5 1.5 0 0 1-1.148-.001 1.5 1.5 0 0 1-.812-.814l-3.594-8.717-1.351.54a1.5 1.5 0 0 1-1.616-.333l-7-7a1.5 1.5 0 0 1 .507-2.456L51.277.5c3.42-1.403 7.353.243 8.763 3.674l3.853 9.687a1.5 1.5 0 0 1-.82 1.94l-2.614 1.08 1.183 2.878a4.95 4.95 0 0 1-.01 3.815 4.95 4.95 0 0 1-2.708 2.69l-9.92 4.143L52.374 38H61zM21.5 57.999C11.3 58 3 49.7 3 39.501a1.5 1.5 0 0 0-3 0c0 11.854 9.645 21.498 21.5 21.498a1.5 1.5 0 0 0 0-3M9 39.501C9 46.393 14.608 52 21.5 52a1.5 1.5 0 0 1 0 3C12.954 55 6 48.046 6 39.5a1.5 1.5 0 0 1 3 0m6 0a6.507 6.507 0 0 0 6.5 6.5 1.5 1.5 0 0 1 0 3c-5.237 0-9.5-4.261-9.5-9.5a1.5 1.5 0 0 1 3 0" clip-rule="evenodd"/></svg>
